X:382
T: Kate Kearney
N: O'Farrell's Pocket Companion v.4 (Sky ed. p.164)
N: "Irish"
M: 6/8
L: 1/8
Q: 240
R: jig
K: D
A| A>FA d>ef| {f}edd d2d| dfa a g/f/e/d/| fee e2d|
b>ab a2a| g>fg f2e| f>ef dBA| B3 {c}d2 :|
P:2
z| A>FA d>ef| {f}edz z2d| dfa a{g}fe| fez z2d/d/|
b>ab a2a| gfg Hf2e| f>ef dBA| B3 {c}d3|
f>ef dBA| B3 {c}d2 :|
P:3
A/A/| AFA AFA| d2{f}e d2d| dfa a{g}f{e}d| fezz2d|
bc'd' a2a| g>fg Hf2e| f>ef dBA| B3 {c}d3|
f>ef dBA| B3 {c}d2 :|
